ru/_assets/ydb-icon.svg

<svg width="16" height="16" viewBox="0 0 16 16" fill="none" xmlns="http://www.w3.org/2000/svg">
<path d="M11 14.3896C11 15.2953 9.7 16 8 16C6.3 16 5 15.2953 5 14.3896V11.6729C5.8 12.3773 6.9 12.6797 8 12.6797C9.1 12.6797 10.2 12.3773 11 11.6729V14.3896ZM16 5.43359C16 6.23859 14.8001 6.94327 13.2002 7.04395L10.7227 9.93457C10.8994 10.1269 10.9998 10.3397 11 10.5654C11 11.3991 9.65685 12.0752 8 12.0752C6.34315 12.0752 5 11.3991 5 10.5654C5.00016 10.359 5.08217 10.1616 5.23145 9.98242L2.7998 7.14453C1.29989 7.04385 0 6.33917 0 5.53418V2.61621C0.8 3.32061 1.9 3.62207 3 3.62207C4.1 3.62207 5.2 3.32061 6 2.61621V3.01855H10V2.61621C10.8 3.32061 11.9 3.62207 13 3.62207C14.1 3.62207 15.2 3.32061 16 2.61621V5.43359ZM6 5.43359C6 6.13799 5.09999 6.7421 4 6.94336L6.09961 9.3584C6.48902 9.22778 6.92075 9.13955 7.33984 9.09375C7.38472 9.08868 7.42998 9.08412 7.47559 9.08008C7.51909 9.07625 7.56243 9.07322 7.60547 9.07031C7.6501 9.06736 7.69501 9.06445 7.74023 9.0625C7.82844 9.05849 7.91523 9.05664 8 9.05664C8.08401 9.05664 8.17 9.05856 8.25684 9.0625C8.30537 9.06457 8.35352 9.06807 8.40137 9.07129C8.43552 9.07368 8.46974 9.07611 8.50391 9.0791C8.56742 9.08451 8.6303 9.09028 8.69238 9.09766C8.69562 9.09805 8.69891 9.09824 8.70215 9.09863C9.07415 9.14352 9.41898 9.22368 9.72266 9.33105L11.7998 6.94336C10.6999 6.74207 10 6.13795 10 5.43359V4.02539H6V5.43359ZM3 0C4.65685 0 6 0.676128 6 1.50977C5.99964 2.34325 4.65663 3.01855 3 3.01855C1.34337 3.01855 0.000356167 2.34325 0 1.50977C0 0.676128 1.34315 0 3 0ZM13 0C14.6569 0 16 0.676128 16 1.50977C15.9996 2.34325 14.6566 3.01855 13 3.01855C11.3434 3.01855 10.0004 2.34325 10 1.50977C10 0.676128 11.3431 0 13 0Z" fill="black"/>
</svg>

<svg xmlns="http://www.w3.org/2000/svg" width="16" height="16" fill="none" viewBox="0 0 16 16">
    <path fill="#000" d="M11 14.39C11 15.295 9.7 16 8 16s-3-.705-3-1.61v-2.717c.8.704 1.9 1.007 3 1.007s2.2-.303 3-1.007v2.717Zm5-8.956c0 .805-1.2 1.51-2.8 1.61l-2.477 2.89c.176.193.277.406.277.631 0 .834-1.343 1.51-3 1.51s-3-.676-3-1.51a.91.91 0 0 1 .231-.583L2.8 7.145C1.3 7.044 0 6.339 0 5.535v-2.92c.8.705 1.9 1.006 3 1.006s2.2-.301 3-1.006v.403h4v-.403c.8.705 1.9 1.006 3 1.006s2.2-.301 3-1.006v2.818Zm-10 0c0 .704-.9 1.308-2 1.51l2.1 2.414a6.03 6.03 0 0 1 1.505-.288 5.883 5.883 0 0 1 .652-.008l.144.01a5.907 5.907 0 0 1 .291.026h.01c.372.046.717.126 1.02.233L11.8 6.943c-1.1-.2-1.8-.805-1.8-1.51V4.026H6v1.409ZM3 0c1.657 0 3 .676 3 1.51 0 .833-1.343 1.509-3 1.509s-3-.676-3-1.51C0 .677 1.343 0 3 0Zm10 0c1.657 0 3 .676 3 1.51 0 .833-1.343 1.509-3 1.509s-3-.676-3-1.51C10 .677 11.343 0 13 0Z"/>
</svg>
